X:1
T:The Fives
T:The  Fives
T:By GEORGE THOMAS and HERSAL THOMAS
T:Albert Ammons and Meade “Lux” Lewis claim that “The Fives,” the Thomas brothers’ musical composition, deserves much credit for the development of modern boogie woogie.  During the twenties, many pianists featured this number as a “get off” tune and in the variations played what is now considered boogie woogie. This is the first appearance in print of this composition.
T:Public Domain
T:Public Domain
T:Public Domain
T:Public Domain
T:Public Domain
C:George Thomas and Hersal Thomas
Z:George Thomas
Z:Public Domain
%%score { 1 | 2 }
L:1/8
Q:1/4=140
M:2/2
K:C
V:1 treble nm="Piano" snm="Pno."
V:2 bass 
V:1
"^Medium  boogie  tempo"!f! g>G A>A z4 | g>G A>A z4 | z2 g>G dc=B_B | GDC=B, _B, !//![B,E^G]3 || %4
"^A" [A,C_E=G]2 z2 z4 | z4 z !///!!>![_C_EF_A]3 | [=A,=C=EG]2 z2 z4 | z4 z !///!!>![_G,_A,C_E]3 | %8
 [F,=A,B,D]2 z3/2 [F,B,DG]/- [F,B,DG] z z3/2 [=F,B,_EG]/- | [F,B,EG] z z2 z2 [F,B,_E]>[=E,G,A,C]- | %10
 [E,G,A,C]>[E,G,A,C]- [E,G,A,C]2 z4 | z4 z2 (3(Gce) || %12
"^B" g>[eg] [_e_g]>[df] [c=e]>[e=g] [_e_g]>[df] | [c=e]>[ce]- [ce]>G{/A} [_Bd]>G z2 | %14
 (3([eg]G[eg]) [_e_g]>[df] [c=e]>[e=g] [_e_g]>[df] | [c=e]>[ce]- [ce]>G{/A} [_Bd]>G A>([DG-c-] | %16
 [_EGc]>)([DG-c-] [EGc]2) z4 | z3/2 A/ ^D>E G>A G>([!courtesy!^DG-A-c-] | %18
 [EGAc]>)([^DG-A-c-] [EGAc]2) z4 | z3/2 A/ ^D>E G>A G>[=DFGc]- | [DFGc]>[DFGc]- [DFGc]2 z4 | %21
 z3/2 A/ ^D>E G>A G>([^DG-c-] | [EGc]>)([^DG-c-] (3([EGc])=D^D) (3(EGA) (3([Fc]z[^D^Fc]) | %23
 [EGc]>C z2 z3/2 c'<d^d/ ||"^C" [egac'] [df_b]2 [Bg]- [Bg] [_Bc]3 | %25
 [_egac']2 [df_b]{/d}[eg]- [eg]2 [F_Gc!courtesy!_e][=E=GAc]- | [EGAc]2 z2 z4 | %27
 (3(^DE[_B=d]-) [Bd]4 z2 | [_egac'] [df_b]2 [Bg]- [Bg] [_Bc]3 | %29
 [_egc']2 [df_b]{/d}[eg]- [eg]2 [F_Gce][=E=GAc]- | [EGAc]2 z2 z4 | z2 z [cc']- [cc'] [cc']2 g | %32
 !//![cc']2 [_B_b]>[Aa] [Gg]>c- c2 | z3/2 [cc']<[_B_b][Aa]/ [Gg]>[Dc] [^Dc]>[Ec]- | [Ec]2 z2 z4 | %35
 z4 z3/2 C<CC/ ||"^D" c2 _B2 G>C z3/2 C/ | c>C _BG z2 !>!G,2- | G,7/2 c/ _B>G C>C | %39
 c>_B G>C G>G (3(G,^G,A,) | [C_EG]6 z2 | (3(^GA[fa]-) !//![fa]2 (3(G=G[_eg]-) !//![eg]2 | %42
 (3(^DE[_B=d]-) !///![Bd]4 z2 | z3/2 c/ ^D>E G>A G>[=DFGc]- | [DFGc]>[DFGc]- [DFGc]2 z4 | %45
 z3/2 c/ ^D>E G>A G>([!courtesy!^DG-c-] | %46
 [EGc]>)([^DG-c-] (3([EGc])=D^D) (3(EGA) (3([Fc]z[^D^Fc]) | [EGc]>C z2 z [eg]2 [eg] || %48
"^E" [^d^f]>[eg] [df]>[=d=f] [ce]>G z2 | [^d^f]>[eg] [df]>[=d=f] [ce]>G F>^D | %50
 [EGc]>C [Fc]>^D [EGc]>C z2 | z3/2 [c'e']/ (3(e[_bd']d) (3([ac']c[gb]) (3(_B^GA) | %52
 [_e=g]>[eg] [df]>[^c=e] [=c_e]>F z2 | [_e^f]>[eg] [ef]>[d=f] [ce]>G F>^D | %54
 [=EGc]>C [Fc]>^D [EGc]>C z2 | z3/2 c/ ^D>E G>A G>[=DFGc]- | [DFGc]>[DFGc]- [DFGc]2 z4 | %57
 z3/2 c/ ^D>E G>A G>([!courtesy!^DG-c-] | %58
 [EGc]>)([^DG-c-] (3([EGc])=D^D) (3(EGA) (3([Fc]z[^D^Fc]) | [EGc]>C z2 z4 || %60
"^F" z3/2 !>![Gcdeg]/- [Gcdeg]>[^G^g] [Aa]>[=G=g] [^G^g]>[Aa] | %61
 [=Gde=g]2 z3/2 !>![Adea]/- [Adea]2 z2 | z3/2 !>![Gcdeg]/- [Gcdeg]>[^G^g] [Aa]>[=G=g] [^G^g]>[Aa] | %63
 [=Gde=g]2 z3/2 !>![Adea]/- [Adea]2 z2 | z3/2 !>![Gc_eg]/- [Gceg]>[^G^g] [Aa]>[=G=g] [^G^g]>[Aa] | %65
 [=G_e=g]2 z3/2 !>![Aea]/- [Aea]2 z2 | z3/2 !>![Gcd=eg]/- [Gcdeg]>[^G^g] [Aa]>[=G=g] [^G^g]>[Aa] | %67
 [=Gde=g]2 z3/2 !>![Adea]/- [Adea]2 z3/2 !>![DFGc]/- | [DFGc]>!>![DFGc]- !///![DFGc]2 z4 | %69
 z3/2 c/ ^D>E G>A G>([!courtesy!^DG-c-] | %70
 [EGc]>)([^DG-c-] (3([EGc])=D^D) (3(EGA) (3([Fc]z[^D^Fc]) | [EGc] z [F,_C_E][=E,A,D] z4 |] %72
V:2
 [G,CE]6 z2 | [F,B,_E]4 z [F,B,E]3 | [=E,_B,D]2 z2 z4 | z8 || %4
[K:bass]!8vb(! F,,,>F,, A,,,>A,, C,,>C, D,,>D, | F,,>F, D,,>D, C,,>=C, =A,,,>=A,, | %6
 C,,,>C,, E,,,>E,, G,,,>G,, A,,,>A,, | C,,>C, A,,,>A,, G,,,>!courtesy!=G,, !courtesy!=E,,,>E,, | %8
 D,,,>D,, E,,,>E,, F,,,>F,, ^F,,,>^F,, | G,,,>G,, =F,,,>=F,, E,,,>E,, !courtesy!=D,,,>D,, | %10
 C,,,>C,, E,,,>E,, G,,,>G,, A,,,>A,, | C,,>C, A,,,>A,, G,,,>G,, E,,,>E,, || %12
 C,,,>C,, !courtesy!=E,,,>E,, G,,,>G,, A,,,>A,, | C,,>C, A,,,>A,, G,,,>G,, E,,,>E,, | %14
 C,,,>C,, E,,,>E,, G,,,>G,, A,,,>A,, | C,,>C, A,,,>A,, G,,,>G,, E,,,>E,, | %16
 F,,,>F,, A,,,>A,, C,,>C, D,,>D, | F,,>F, =D,,>=D, C,,>C, A,,,>A,, | %18
 C,,,>C,, E,,,>E,, G,,,>G,, A,,,>A,, | C,,>C, A,,,>A,, G,,,>G,, E,,,>E,, | %20
 D,,,>D,, E,,,>E,, F,,,>F,, ^F,,,>^F,, | G,,,>G,, =F,,,>=F,, E,,,>E,, D,,,>!courtesy!=D,, | %22
 C,,,>C,, E,,,>E,, G,,,>G,, A,,,>A,, | C,,>C, A,,,>A,, G,,,>G,, E,,,>E,, || %24
 C,,,>C,, E,,,>E,, G,,,>G,, A,,,>A,, | C,,>C, A,,,>A,, G,,,>G,, !courtesy!=E,,,>E,, | %26
 C,,,>C,, E,,,>E,, G,,,>G,, A,,,>A,, | C,,>C, A,,,>A,, G,,,>G,, E,,,>E,, | %28
 F,,,>F,, A,,,>A,, C,,>C, D,,>D, | F,,>F, D,,>D, C,,>C, A,,,>A,, | %30
 C,,,>C,, E,,,>E,, G,,,>G,, A,,,>A,, | C,,>C, A,,,>A,, G,,,>G,, E,,,>E,, | %32
 D,,,>D,, E,,,>E,, F,,,>F,, ^F,,,>^F,, | G,,,>G,, =F,,,>=F,, E,,,>E,, !courtesy!=D,,,>D,, | %34
 C,,,>C,, E,,,>E,, G,,,>G,, A,,,>A,, | C,,>C, A,,,>A,, G,,,>G,, E,,,>E,, || %36
 C,,,>C,, E,,,>E,, G,,,>G,, A,,,>A,, | C,,>C, A,,,>A,, G,,,>G,, E,,,>E,, | %38
 C,,,>C,, E,,,>E,, G,,,>G,, A,,,>A,, | C,,>C, A,,,>A,, G,,,>G,, E,,,>E,, | %40
 F,,,>F,, A,,,>A,, C,,>C, D,,>D, | F,,>F, D,,>D, C,,>C, A,,,>A,, | %42
 C,,,>C,, E,,,>E,, G,,,>G,, A,,,>A,, | C,,>C, A,,,>A,, G,,,>G,, E,,,>E,, | %44
 D,,,>D,, E,,,>E,, F,,,>F,, ^F,,,>^F,, | G,,,>G,, =F,,,>=F,, E,,,>E,, D,,,>D,, | %46
 C,,,>C,, E,,,>E,, G,,,>G,, A,,,>A,, | C,,>C, A,,,>A,, G,,,>G,, E,,,>E,, || %48
 C,,,>C,, E,,,>E,, G,,,>G,, A,,,>A,, | C,,>C, A,,,>A,, G,,,>G,, E,,,>E,, | %50
 C,,,>C,, E,,,>E,, G,,,>G,, A,,,>A,, | C,,>C, A,,,>A,, G,,,>G,, E,,,>E,, | %52
 F,,,>F,, A,,,>A,, C,,>C, D,,>D, | !courtesy!=F,,>F, D,,>D, C,,>C, A,,,>A,, | %54
 C,,,>C,, E,,,>E,, G,,,>G,, A,,,>A,, | C,,>C, A,,,>A,, G,,,>G,, E,,,>E,, | %56
 D,,,>D,, E,,,>E,, F,,,>F,, ^F,,,>^F,, | G,,,>G,, =F,,,>=F,, E,,,>E,, D,,,>!courtesy!=D,, | %58
 C,,,>C,, E,,,>E,, G,,,>G,, A,,,>A,, | C,,>C, A,,,>A,, G,,,>G,, E,,,>E,, || %60
 C,,,>C,, E,,,>E,, G,,,>G,, A,,,>A,, | C,,>C, A,,,>A,, G,,,>G,, E,,,>E,, | %62
 C,,,>C,, E,,,>E,, G,,,>G,, A,,,>A,, | C,,>C, A,,,>A,, G,,,>G,, E,,,>E,, | %64
 F,,,>F,, A,,,>A,, C,,>C, D,,>D, | F,,>F, D,,>D, C,,>C, A,,,>A,, | %66
 C,,,>C,, E,,,>E,, G,,,>G,, A,,,>A,, | C,,>C, A,,,>A,, G,,,>G,, E,,,>E,, | %68
 D,,,>D,, E,,,>E,, F,,,>F,, ^F,,,>^F,, | G,,,>G,, =F,,,>=F,, E,,,>E,, D,,,>!courtesy!=D,, | %70
 C,,,>C,, E,,,>E,, G,,,>G,, A,,,>A,, | C,,!8vb)! z"_loco" [_D,,_A,,][C,,G,,] z!8vb(! C,,,3!8vb)! |] %72

